X: 21572
T: The Leith Scots measure
%R: reel
B: James Oswald "The Caledonian Pocket Companion" v.2 p.157 #2
Z: 2018 John Chambers <jc:trillian.mit.edu>
M: C|
L: 1/8
Q: "Brisk"
K: A
(cB) |\
A2 e4 (dc) | Bd f4 (ed) |\
cea2 dfa2 | ceac BdcB |\
A2 e4 (dc) | B2 f4 (ed) |\
ceac Bfed | Tc2BA A2 :|
|: (fg) |\
(ag)(ag) (ae)(dc) | Tf2 e4 (fg) |\
(ag)(ag) (ae)(dc) | Tc2 B4 (fg) |\
(ae)ce afdf | aece afed |\
ceac Bfed | Tc2(BA) A2 :|


